!!!COM: Beethoven, Ludwig van
!!!CDT: 1770///-1827///
!!!ODT: 1806///
!!!OTL: String Quartet No. 9 in C Major, Op. 59, No. 3
!!!OPS: Op. 59
!!!ONM: No. 3
!!!OMV: Mvmt. 2
!!!OMD: Andante con moto quasi Allegretto
!!!PDT: 1808///
!!!PPP: Vienna
!!!ODE: Dem Grafen Rasoumoffsky gewidmet
!!!ONB: Op. 59 are called the Rasumovsky Quartets
!!!MPD: 1806///
**kern	**dynam	**kern	**dynam	**kern	**dynam	**kern	**dynam
*staff4	*staff4	*staff3	*staff3	*staff2	*staff2	*staff1	*staff1
*Icello	*Icello	*Iviola	*Iviola	*Ivioln	*Ivioln	*Ivioln	*Ivioln
*>[A,A1,A,A2,B,B1,B,C]	*>[A,A1,A,A2,B,B1,B,C]	*>[A,A1,A,A2,B,B1,B,C]	*>[A,A1,A,A2,B,B1,B,C]	*>[A,A1,A,A2,B,B1,B,C]	*>[A,A1,A,A2,B,B1,B,C]	*>[A,A1,A,A2,B,B1,B,C]	*>[A,A1,A,A2,B,B1,B,C]
*>norep[A,A2,B,C]	*>norep[A,A2,B,C]	*>norep[A,A2,B,C]	*>norep[A,A2,B,C]	*>norep[A,A2,B,C]	*>norep[A,A2,B,C]	*>norep[A,A2,B,C]	*>norep[A,A2,B,C]
*clefF4	*clefF4	*clefC3	*clefC3	*clefG2	*clefG2	*clefG2	*clefG2
*k[]	*k[]	*k[]	*k[]	*k[]	*k[]	*k[]	*k[]
*a:	*a:	*a:	*a:	*a:	*a:	*a:	*a:
*M6/8	*M6/8	*M6/8	*M6/8	*M6/8	*M6/8	*M6/8	*M6/8
*MM120	*MM120	*MM120	*MM120	*MM120	*MM120	*MM120	*MM120
=1-	=1-	=1-	=1-	=1-	=1-	=1-	=1-
*>A	*>A	*>A	*>A	*>A	*>A	*>A	*>A
4EE/	f	2.r	.	2.r	.	8r	.
.	.	.	.	.	.	8r	.
8r	.	.	.	.	.	(8e/	p
4EE/	p	.	.	.	.	8a/L	.
.	.	.	.	.	.	8b/	.
8r	.	.	.	.	.	8cc/J)	.
=2	=2	=2	=2	=2	=2	=2	=2
4EE/	.	2.r	.	2.r	.	(8b/L	.
.	.	.	.	.	.	8a/	.
8r	.	.	.	.	.	8g#/J	.
4EE/	.	.	.	.	.	8f/L	.
.	.	.	.	.	.	8e/	.
8r	.	.	.	.	.	8d/J)	.
=3	=3	=3	=3	=3	=3	=3	=3
4EE/	.	8r	.	8r	.	(8c/L	.
.	.	8r	.	8r	.	8B/	.
8r	.	(8A/	p	(8A/	p	8A/J)	.
4EE/	.	8G#/L	.	8B/L	.	[4.e/	.
.	.	8A/	.	8c/	.	.	.
8r	.	8B/J)	.	8d/J)	.	.	.
=4	=4	=4	=4	=4	=4	=4	=4
4EE/	.	(8A/L	.	(8c/L	.	4.e/_	.
.	.	8G#/	.	8B/	.	.	.
8r	.	8F/J	.	8A/J	.	.	.
4EE/	.	4E/	.	8G#/L	.	(8e/L]	.
.	.	.	.	8A/	.	8f#/	.
8r	.	8D/)	.	8B/J)	.	8g#/J)	.
=5	=5	=5	=5	=5	=5	=5	=5
*>A1	*>A1	*>A1	*>A1	*>A1	*>A1	*>A1	*>A1
8AA/L	.	4C/	.	4c/	.	4a/	.
8BB/	.	.	.	.	.	.	.
8AA/J	.	8r	.	8r	.	8r	.
8GG#/L	.	4r	.	4r	.	4r	.
8AA/	.	.	.	.	.	.	.
8GGn/J	.	8r	.	8r	.	8r	.
=6	=6	=6	=6	=6	=6	=6	=6
8FF/L	.	2.r	.	2.r	.	2.r	.
8EE/	.	.	.	.	.	.	.
8DD/J	.	.	.	.	.	.	.
8CC/L	.	.	.	.	.	.	.
8DD/	.	.	.	.	.	.	.
8DD#/J	.	.	.	.	.	.	.
=7:|!	=7:|!	=7:|!	=7:|!	=7:|!	=7:|!	=7:|!	=7:|!
*>A2	*>A2	*>A2	*>A2	*>A2	*>A2	*>A2	*>A2
8AA/L	.	4C/	.	4c/	.	4a/	.
8BB/	.	.	.	.	.	.	.
8AA/J	.	8r	.	8r	.	8r	.
8GG#/L	.	4r	.	4r	.	4r	.
8AA/	.	.	.	.	.	.	.
8GGn/J	.	8r	.	8r	.	8r	.
=8	=8	=8	=8	=8	=8	=8	=8
8FF/L	.	2.r	.	2.r	.	2.r	.
8GG/	.	.	.	.	.	.	.
8FF/J	.	.	.	.	.	.	.
8EE/L	.	.	.	.	.	.	.
8FF/	.	.	.	.	.	.	.
8DD/J	.	.	.	.	.	.	.
=9	=9	=9	=9	=9	=9	=9	=9
*>B	*>B	*>B	*>B	*>B	*>B	*>B	*>B
4CC/	.	8r	.	8r	.	8r	.
.	.	8r	.	8r	.	8r	.
8r	.	(8c/	p	([8c/	p	(8c/	p
*	*	*	*	*^	*	*	*
4C/	p	8B-/L	.	8e/L	4.c\_	.	8g/L	.
.	.	8A/	.	8f/	.	.	8a/	.
8r	.	8E/J)	.	8g/J)	.	.	8b-/J)	.
=10	=10	=10	=10	=10	=10	=10	=10	=10
4FF/	.	(8E/L	.	(8g/L	4.c\]	.	(8b-/L	.
.	.	8F/)	.	8f/)	.	.	8a/)	.
8r	.	8F/J	.	8f/J	.	.	8a/J	.
*	*	*	*	*v	*v	*	*^	*
4AA/	.	(8G/L	.	(8c#/L	.	[4.a/	8e\L	.
.	.	8F/	.	8d/	.	.	8f\	.
8r	.	8C#/J)	.	8e/J)	.	.	[8g\J	.
=11	=11	=11	=11	=11	=11	=11	=11	=11
4DD/	.	(8C#/L	.	(8e/L	.	(4a/]	8g\L]	.
.	.	8D/J)	.	8d/J)	.	.	8f\J)	.
*	*	*	*	*	*	*v	*v	*
8r	.	(8A/	.	[8a/	.	(8a/	.
4D\	f	8f\L	.	4.a/_	.	8dd\L	.
.	.	8e\	.	.	.	8ee\	.
8r	.	8d\J)	.	.	.	8ff\J)	.
=12	=12	=12	=12	=12	=12	=12	=12
4AA/	p	(8c#/L	.	4.a/]	.	(8ee\L	.
.	.	8B-/	.	.	.	8dd\	.
8r	.	8A/J	.	.	.	8cc#\J	.
4AA/	.	8G/L	.	(8c#/L	.	8b-\L	.
.	.	8F/	.	8d/	.	8a\	.
8r	.	8E/J)	.	8e/J)	.	8g\J)	.
=13	=13	=13	=13	=13	=13	=13	=13
4DD/	.	(8D/L	.	4.A/	.	(8f/L	.
.	.	8E/	.	.	.	8e/	.
8r	.	8F/J)	.	.	.	8d/J)	.
4.E\	.	(8B/L	.	(8d/L	.	(4.g#/	.
.	.	8c/	.	8e/	.	.	.
.	.	8d/J	.	8f/J	.	.	.
=14	=14	=14	=14	=14	=14	=14	=14
4AA/	.	8c/L	.	8e/L	.	4a/)	.
.	.	8B/	.	8d/	.	.	.
8AA/	.	8A/J)	.	8c/J)	.	8a/	.
(8C/L	.	(4.d#\	.	(4.f#/	.	(8a/L	.
8BB/	.	.	.	.	.	8b/	.
8AA/J)	.	.	.	.	.	8cc/J	.
=15	=15	=15	=15	=15	=15	=15	=15
4.EE/	.	4.e\)	.	4.g#/)	.	8b/L	.
.	.	.	.	.	.	8g#/	.
.	.	.	.	.	.	8e/J)	.
4.E\	.	(8B/L	.	(8dn/L	.	(4.g#/	.
.	.	8c/	.	8e/	.	.	.
.	.	8dn/J	.	8fn/J	.	.	.
=16	=16	=16	=16	=16	=16	=16	=16
4AA/	.	8c/L	.	8e/L	.	4a/)	.
.	.	8B/	.	8d/	.	.	.
8AA/	.	8A/J)	.	8c/J)	.	8a/	.
(8C/L	.	(4.d#\	.	(4.f#/	.	(8a/L	.
8BB/	.	.	.	.	.	8b/	.
8AA/J)	.	.	.	.	.	8cc/J	.
=17	=17	=17	=17	=17	=17	=17	=17
4.EE/	.	4.e\)	.	4.g#/)	.	8b/L	.
.	.	.	.	.	.	8g#/	.
.	.	.	.	.	.	8e/J)	.
(8C/L	.	(4.d#\	.	(4.f#/	.	(8a/L	.
8BB/	.	.	.	.	.	8b/	.
8AA/J)	.	.	.	.	.	8cc/J	.
=18	=18	=18	=18	=18	=18	=18	=18
4.EE/	.	4.e\)	.	4.g#/)	.	8b/L	.
.	.	.	.	.	.	8g#/	.
.	.	.	.	.	.	8e/J)	.
(8F\L	.	4B/	.	4g#/	.	(8dd\L	.
8E\	.	.	.	.	.	8ee\	.
8D\J)	.	8B/	.	8g#/	.	8ff\J)	.
=19	=19	=19	=19	=19	=19	=19	=19
(4C/	p	(4c\	p	4a/	p	(4ee\	p
8F\	.	[8f\)	.	8a/	.	8a/	.
4D\	.	(4f\]	.	4a/	.	4cc\	.
8E\)	.	8B/)	.	8g#/	.	8b\)	.
=20	=20	=20	=20	=20	=20	=20	=20
4F\	.	(8B\L	.	(4g#/	.	(4b\	.
.	.	8f\	.	.	.	.	.
8r	.	8e\J	.	8a/	.	8cc\	.
8r	.	8d\L	.	8b\L	.	8dd\L	.
8r	.	8c\	.	8cc\	.	8ee\	.
8GG#/	.	8B\J)	.	8dd\J)	.	8ff\J)	.
=21	=21	=21	=21	=21	=21	=21	=21
4AA/	f	(8c/L	f	(8cc/L	f	(8ee\L	f
.	.	8A/)	.	8e/)	.	8cc\)	.
8FF/	.	8A'/J	.	8d'/J	.	8a'\J	.
4DD/	.	(8F/L	>	(4a/	>	(4cc\	>
.	.	8f/	.	.	.	.	.
8EE/	.	8B/J)	.	8g#/)	.	8b\)	.
=22	=22	=22	=22	=22	=22	=22	=22
*>B1	*>B1	*>B1	*>B1	*>B1	*>B1	*>B1	*>B1
8AA/L	p	4c\	p	4a/	p	4a/	p
8GGn/	.	.	.	.	.	.	.
8EE/J	.	8r	.	8r	.	8r	.
8GG/L	.	4r	.	4r	.	4r	.
8FF/	.	.	.	.	.	.	.
8DD/J	.	8r	.	8r	.	8r	.
=23:|!	=23:|!	=23:|!	=23:|!	=23:|!	=23:|!	=23:|!	=23:|!
*>C	*>C	*>C	*>C	*>C	*>C	*>C	*>C
4AA/	p	(4E/	p	(4c/ 4a/	p	(4a/	p
8r	.	8A/	.	8e/	.	8cc/	.
4AA/	.	8G#/L	.	8d/L	.	8b/L	.
.	.	8A/)	.	8e/)	.	8cc/)	.
8r	.	8E'/J	.	8c'/J	.	8a'/J	.
=24	=24	=24	=24	=24	=24	=24	=24
4AA/	.	(4E/	.	(4c/	.	4a/	.
8r	.	8A/)	.	8e/)	.	8cc/	.
4AA/	.	(16G#/LL	.	(16d/LL	.	(16b/LL	.
.	.	16A/)	.	16e/)	.	16cc/)	.
.	.	(16D/	.	(16f/	.	(16dd/	.
.	.	16E/)	.	16e/)	.	16cc/)	.
8r	.	(16F/	.	(16d/	.	(16b/	.
.	.	16E/JJ)	.	16c/JJ)	.	16a/JJ)	.
=25	=25	=25	=25	=25	=25	=25	=25
4AA/	.	(4E/	.	(4c/	.	(4a/	.
8r	.	8A/)	.	8e/)	.	8cc/)	.
4AA/	.	(16G#/LL	.	(16d/LL	.	(16b/LL	.
.	.	16A/)	.	16e/)	.	16cc/)	.
.	.	(16G#/	.	(16d/	.	(16b/	.
.	.	16A/J)	.	16e/J)	.	16cc/J)	.
8r	.	8E'/J	.	8c/J	.	8a/J	.
=26	=26	=26	=26	=26	=26	=26	=26
4AA/	.	(4E/	.	(4c/	.	(4a/	.
8r	.	8A/)	.	8e/)	.	8cc/)	.
4AA/	.	(16G#/LL	.	(16d/LL	.	(16b/LL	.
.	.	16A/)	.	16e/)	.	(16cc/)	.
.	.	(16D/	.	(16f/	.	16dd/	.
.	.	16E/)	.	16e/)	.	16cc/)	.
8r	.	(16F/	.	(16d/	.	(16b/	.
.	.	16E/JJ)	.	16c/JJ)	.	16a/JJ)	.
=27	=27	=27	=27	=27	=27	=27	=27
4AA/	.	(4E/	.	(4c/	.	(4a/	.
8r	.	16F/LL	.	16d/LL	.	16b/LL	.
.	.	16E/JJ)	.	16c/JJ)	.	16a/JJ)	.
4AA/	.	(4E/	.	(4c/	.	(4a/	.
8r	.	16F/LL	.	16d/LL	.	16b/LL	.
.	.	16E/JJ)	.	16c/JJ)	.	16a/JJ)	.
=28	=28	=28	=28	=28	=28	=28	=28
4AA/	.	4E/	.	4c/	.	4a/	.
8r	.	(8cc\	.	8r	.	8r	.
4CC/	f	8dd-\L	f	4r	.	4r	.
.	.	8b-\	.	.	.	.	.
8r	.	8a-\J)	.	8r	.	8r	.
=29	=29	=29	=29	=29	=29	=29	=29
4CC/	p	(8g\L	p	2.r	.	2.r	.
.	.	8b-\	.	.	.	.	.
8r	.	8f\J)	.	.	.	.	.
4CC/	.	(8e\L	.	.	.	.	.
.	.	8g\	.	.	.	.	.
8r	.	8c\J	.	.	.	.	.
=30	=30	=30	=30	=30	=30	=30	=30
4CC/	.	8d-/L	.	4r	.	4r	.
.	.	8B-/	.	.	.	.	.
8r	.	8A-/J)	.	8r	.	8r	.
4CC/	.	(8G-/L	.	4r	.	4r	.
.	.	8B-/	.	.	.	.	.
8r	.	8F/J	.	[8d-/	.	[8dd-\	.
=31	=31	=31	=31	=31	=31	=31	=31
4CC/	.	8E/L	.	(4d-/]	.	(4dd-\]	.
.	.	8Gn/	.	.	.	.	.
8r	.	8B-/J)	.	8c/)	.	8cc\)	.
4CC/	.	(8G-/L	.	8r	.	8r	.
.	.	8B-/	.	8r	.	8r	.
8r	.	8F/J	.	[8d-/	.	[8dd-\	.
=32	=32	=32	=32	=32	=32	=32	=32
4CC/	.	8E/L	.	(4d-/]	.	(4dd-\]	.
.	.	8G/	.	.	.	.	.
8r	.	8B-/J)	.	8c/)	.	8cc\)	.
4CC/	.	(8G-/L	.	8r	.	8r	.
.	.	8B-/	.	8r	.	8r	.
8r	.	8F/J	.	[8d-/	.	[8dd-\	.
=33	=33	=33	=33	=33	=33	=33	=33
4CC/	.	8E/L	.	(8d-/L]	.	(8dd-\L]	.
.	.	8G/	.	8c/	.	8cc\	.
8r	.	8D-/J)	.	[8b-/J)	.	[8bb-\J)	.
4CC/	.	(8C/L	.	(8b-/L]	.	(8bb-\L]	.
.	.	8E/	.	8g/	.	8gg\	.
8r	.	8G/J)	.	8cc/J)	.	8ccc\J)	.
=34	=34	=34	=34	=34	=34	=34	=34
8FF/L	.	4F/	.	8a-/L	.	8aa-\	.
(8A-\	.	.	.	(8a-/	.	8r	.
8F\J	.	8r	.	8f/J)	.	8r	.
8D-\L	.	8r	.	(8d-/L	.	4r	.
8F\	.	8r	.	8f/	.	.	.
8C\J	.	[8a-\	.	8c/J	.	[8aa-\	.
=35	=35	=35	=35	=35	=35	=35	=35
8BBn\L	.	(4a-\]	.	8Bn/L	.	(4aa-\]	.
8Dn\	.	.	.	8dn/	.	.	.
8F\J)	.	8g\)	.	8f/J)	.	8gg\)	.
(8D-\L	.	8r	.	(8d-/L	.	8r	.
8F\	.	8r	.	8f/	.	8r	.
8C\J	.	[8a-\	.	8c/J	.	[8aa-\	.
=36	=36	=36	=36	=36	=36	=36	=36
8BBn\L	.	(4a-\]	.	8B/L	.	(4aa-\]	.
8Dn\	.	.	.	8dn/	.	.	.
8F\J)	.	8g\)	.	8f/J)	.	8gg\)	.
(8D-\L	.	(8d-\L	.	8r	.	8r	.
8F\	.	8f\	.	8r	.	8r	.
8C\J)	.	8c\J)	.	[8a-/	.	[8aa-\	.
=37	=37	=37	=37	=37	=37	=37	=37
(8BB/L	.	(8B/L	.	8a-\L]	.	8aa-\L]	.
8Dn/	.	8dn/	.	(8g\	.	(8gg\	.
8AA-/J	.	8A-/J	.	[8ff\J	.	8fff\J	.
8GG/L	.	8G/L	.	8ff\L]	.	8fff\L	.
8BB/	.	8B/	.	8dd\	.	8ddd\	.
8GG/J	.	8G/J	.	8gg\J	.	8ggg\J	.
=38	=38	=38	=38	=38	=38	=38	=38
8AA-/L	.	8A-/L	.	8ff\L	.	8fff\L	.
8C/	.	8c/	.	8ee-\	.	8eee\	.
[8AA-/J	.	8F/J	.	8dd\J	.	8ddd\J	.
8AA-/L]	.	8F#/L	.	8cc\L	.	8ccc\L	.
8GG/	.	8G/	.	8ee-\	.	8eee\	.
8FF#/J)	.	8An/J)	.	8cc\J)	.	8ccc\J)	.
=39	=39	=39	=39	=39	=39	=39	=39
4GG/	p	4D/	p	8b\	p	8bb\	p
.	.	.	.	[4g/	.	8r	.
8r	.	(8D/	.	.	.	(8d\	.
4GG/	p	4E/	.	(8g/L]	.	[4.cc\)	.
.	.	.	.	8f#/	.	.	.
8r	.	8C/)	.	8a/J)	.	.	.
=40	=40	=40	=40	=40	=40	=40	=40
4GG/	.	4D/	.	4g/	.	(8cc\L]	.
.	.	.	.	.	.	8b\J)	.
8r	.	(8D/	.	(8b\	.	[8gg\	.
4GG/	.	4E-/	.	4.cc\)	.	(8gg\L]	.
.	.	.	.	.	.	8ff#\	.
8r	.	8C/)	.	.	.	(8aa\J)	.
=41	=41	=41	=41	=41	=41	=41	=41
4GG/	.	4D/	.	8b\	.	4gg\)	.
.	.	.	.	[4g/	.	.	.
8r	.	(8D/	.	.	.	(8b\	.
4GG/	.	4E-/	.	(8g/L]	.	4.cc\	.
.	.	.	.	8f#/	.	.	.
8r	.	8C/)	.	8a/J)	.	.	.
=42	=42	=42	=42	=42	=42	=42	=42
4GG/	.	4D/	.	4g/	.	(8cc\L)	.
.	.	.	.	.	.	8b\J)	.
8r	.	(8D/	.	(8b\	.	[8gg\	.
4GG/	.	4E-/	.	4.cc\)	.	(8gg\L]	.
.	.	.	.	.	.	8ff#\	.
8r	.	8C/)	.	.	.	8aa\J)	.
=43	=43	=43	=43	=43	=43	=43	=43
4GG/	.	(4D/	.	8b/L	.	8gg\L	.
.	.	.	.	8B/J	.	8g\J	.
8r	.	8E-/	.	8r	.	8r	.
4GG/	.	4D/	.	8r	.	8r	.
.	.	.	.	8B/	.	8g/	.
8r	.	8En/)	.	8r	.	8r	.
=44	=44	=44	=44	=44	=44	=44	=44
4GG/	.	(4F/	.	8r	.	8r	.
.	.	.	.	8B/	.	8g/	.
8r	.	8F#/	.	8r	.	8r	.
4GG/	.	[4.G/)	.	4r	.	8r	.
.	.	.	.	.	.	16a'\LL	.
.	.	.	.	.	.	16b'\	.
8FF/	.	.	.	8r	.	16cc'\	.
.	.	.	.	.	.	16dd'\JJ	.
=45	=45	=45	=45	=45	=45	=45	=45
4EE/	.	(4.G/]	.	2.r	.	8ee'\L	.
.	.	.	.	.	.	8dd'\	.
8r	.	.	.	.	.	8cc'\J	.
4FF/	.	8G#/L	.	.	.	(8b\L	.
.	.	8A/)	.	.	.	8cc\)	.
8r	.	8A'/J	.	.	.	8a'\J	.
=46	=46	=46	=46	=46	=46	=46	=46
4GG/	.	(8B/L	.	(8d/L	.	[4.g/	.
.	.	8c/	.	8e/	.	.	.
8r	.	8d/J	.	8f/J	.	.	.
8C/L	.	4c/)	.	4e/)	.	8g/L]	.
8GG/	.	.	.	.	.	16a'/L	.
.	.	.	.	.	.	16b'/	.
8FF/J	.	[8G/	.	8r	.	16cc'/	.
.	.	.	.	.	.	16dd'/JJ	.
=47	=47	=47	=47	=47	=47	=47	=47
4EE/	.	(4.G/]	.	2.r	.	8ee'\L	.
.	.	.	.	.	.	8dd'\	.
8r	.	.	.	.	.	8cc'\J	.
4FF/	.	8G#/L	.	.	.	(8b\L	.
.	.	8A/)	.	.	.	8cc\)	.
8r	.	8A'/J	.	.	.	8a'\J	.
=48	=48	=48	=48	=48	=48	=48	=48
4GG/	.	(8B/L	.	(8d/L	.	[4.g/	.
.	.	8c/	.	8e/	.	.	.
8r	.	8d/J)	.	8f/J	.	.	.
4C/	.	8c/L	.	4e/)	.	4g/]	.
.	.	16A'/L	.	.	.	.	.
.	.	16B'/	.	.	.	.	.
8r	.	16c'/	.	8r	.	8r	.
.	.	16d'/JJ	.	.	.	.	.
=49	=49	=49	=49	=49	=49	=49	=49
8r	.	8e'\L	.	4r	.	2.r	.
16BB'\LL	.	8d'\	.	.	.	.	.
16C'\	.	.	.	.	.	.	.
16D'\	.	8c'\J	.	8r	.	.	.
16E'\JJ	.	.	.	.	.	.	.
4F\	.	(8B/L	.	8r	.	.	.
.	.	8c/)	.	16a'\LL	.	.	.
.	.	.	.	16b'\	.	.	.
8FF/	.	8A'/J	.	16cc\	.	.	.
.	.	.	.	16dd'\JJ	.	.	.
=50	=50	=50	=50	=50	=50	=50	=50
4.GG/	.	[4.G/	.	(4.b\	.	8r	.
.	.	.	.	.	.	16dd'\LL	.
.	.	.	.	.	.	16ee'\	.
.	.	.	.	.	.	16ff'\	.
.	.	.	.	.	.	16gg'\JJ	.
4C/	.	8G/L]	.	4cc\)	.	4ee\	.
.	.	16A'/L	.	.	.	.	.
.	.	16B'/	.	.	.	.	.
8r	.	16c'/	.	8r	.	8r	.
.	.	16d'/JJ	.	.	.	.	.
=51	=51	=51	=51	=51	=51	=51	=51
8r	.	8e'\L	.	4r	.	2.r	.
16BB'\LL	.	8d'\	.	.	.	.	.
16C'\	.	.	.	.	.	.	.
16D'\	.	8c'\J	.	8r	.	.	.
16E'\JJ	.	.	.	.	.	.	.
4F\	.	(8B/L	.	8r	.	.	.
.	.	8c/)	.	16a'\LL	.	.	.
.	.	.	.	16b'\	.	.	.
8FF/	.	8A'/J	.	16cc'\	.	.	.
.	.	.	.	16dd'\JJ	.	.	.
=52	=52	=52	=52	=52	=52	=52	=52
4.GG/	.	[4.G/	.	8ee\L	.	8r	.
.	.	.	.	16ee'\L	.	16gg'\LL	.
.	.	.	.	16ff'\	.	16aa'\	.
.	.	.	.	16dd'\	.	16bb'\	.
.	.	.	.	16ee'\JJ	.	16ccc'\JJ	.
4.GG/	.	(8G/L]	.	8ff\	.	16ddd'\LL	.
.	.	.	.	.	.	16eee'\	.
.	.	8F/)	.	8r	.	16fff'\	.
.	.	.	.	.	.	16ggg'\	.
.	.	8D'/J	.	8G/ 8f/	.	16aaa'\	.
.	.	.	.	.	.	16bbb'\JJ	.
=53	=53	=53	=53	=53	=53	=53	=53
4CC/	p	(8C/L	p	(8G/ 8e/L	p	(4cccc\	p
.	.	8G/	.	8g/	.	.	.
8r	.	8c/J)	.	8cc/J)	.	8ggg\	.
4C/	.	(8F/L	.	(8f/L	.	8aaa-\L	.
.	.	8D/	.	8d/	.	8fff\	.
8r	.	8B/J)	.	8b/J)	.	8ggg\J)	.
=54	=54	=54	=54	=54	=54	=54	=54
4C/	.	(8G/L	.	(8g/L	.	(4eee\	.
.	.	8E/	.	8e/	.	.	.
8r	.	8c/J)	.	8cc/J)	.	8ccc\	.
4C/	.	(8F/L	.	(8f/L	.	8aa-\L	.
.	.	8D/	.	8d/	.	8ff\	.
8r	.	8B/J)	.	8b/J)	.	8gg\J)	.
=55	=55	=55	=55	=55	=55	=55	=55
4CC/	.	(8G/L	.	4e/ 4cc/	.	(4ee\	.
.	.	8E/	.	.	.	.	.
8r	.	8c/J)	.	8r	.	8cc\	.
4CC/	.	(8F/L	.	4r	.	8a-/L	.
.	.	8D/	.	.	.	8f/	.
8r	.	8B/J)	.	8r	.	8g/J)	.
=56	=56	=56	=56	=56	=56	=56	=56
4CC/	.	(8E/L	.	4r	.	4e/	.
.	.	8G/	.	.	.	.	.
8r	.	8A-/J)	.	8r	.	(8c/	.
4CC/	.	(8A-/L	.	4r	.	4.B/) 4.d/	.
.	.	8F/	.	.	.	.	.
8r	.	8G/J)	.	[8g/	p	.	.
=57	=57	=57	=57	=57	=57	=57	=57
4CC/	.	(8E/L	.	8g/]	.	4c/ 4e/	.
.	.	8G/	.	8r	.	.	.
8r	.	[8A-/J)	.	8r	.	(8c/	.
4CC/	.	(8A-/L]	.	4r	.	4.B/) 4.d/	.
.	.	8F/	.	.	.	.	.
8r	.	8G/J)	.	[8g/	.	.	.
=58	=58	=58	=58	=58	=58	=58	=58
4CC/	.	(8E/L	.	8g/]	.	4c/ 4e/	.
.	.	8G/	.	8r	.	.	.
8r	.	[8A-/J)	.	8r	.	(8c/	.
4CC/	.	(8A-/L]	.	4r	.	4.B/) 4.d/	.
.	.	8F/	.	.	.	.	.
8r	.	8G/J)	.	[8g/	.	.	.
=59	=59	=59	=59	=59	=59	=59	=59
4CC'/	.	(8E/L	.	8g/L]	.	4c/ (4e/	.
.	.	8G/	.	(8G/	.	.	.
8r	.	8F/J)	.	8A-/J	.	8B/ 8d/	.
4CC/	.	(8E/L	.	8G/)	.	4c/ 4e/	.
.	.	8G/	.	8r	.	.	.
8r	.	8F/J)	.	(8A-/	.	8B/) 8d/	.
=60	=60	=60	=60	=60	=60	=60	=60
4CC/	.	(8E/L	.	8G/)	.	(4c/ 4e/	.
.	.	8G/	.	8r	.	.	.
8r	.	8F/J)	.	(8A-/	.	8B/ 8d/	.
4CC/	.	(8E/L	.	(8G/)	.	4c/ 4e/	.
.	.	8G/	.	8r	.	.	.
8r	.	8F/J)	.	8A-/	.	8B/) 8d/	.
=61	=61	=61	=61	=61	=61	=61	=61
*	*	*	*	*	*	*^	*
4CC/	.	4E/	pp	4G/)	pp	2.r	4c/ 4e/	pp
8r	.	8r	.	8r	.	.	8r	.
4CC/	.	4E/	.	4G/	.	.	4c/	.
8r	.	8r	.	8r	.	.	8r	.
*	*	*	*	*	*	*v	*v	*
=62	=62	=62	=62	=62	=62	=62	=62
8CC/	.	4E/	.	4G/	.	4c/	.
8r	.	.	.	.	.	.	.
(8E\	.	8r	.	8r	.	8r	.
8G\L	.	4r	.	4r	.	4r	.
8E\	.	.	.	.	.	.	.
8C\J)	.	8r	.	8r	.	8r	.
=63	=63	=63	=63	=63	=63	=63	=63
(8D-/L	.	4r	.	4r	.	2.r	.
8BB-/	.	.	.	.	.	.	.
8AA-/J)	.	8r	.	8r	.	.	.
(8GG-/L	.	8r	.	8r	.	.	.
8BB-/	.	8r	.	8r	.	.	.
8FF/J	.	[8D-/	.	[8d-/	.	.	.
=64	=64	=64	=64	=64	=64	=64	=64
8EE/L	.	(4D-/]	.	(4d-/]	.	2.r	.
8GGn/	.	.	.	.	.	.	.
8BB-/J)	.	8C/)	.	8c/)	.	.	.
(8GG-/L	.	8r	.	8r	.	.	.
8BB-/	.	8r	.	8r	.	.	.
8FF/J	.	[8D-/	.	[8d-/	.	.	.
=65	=65	=65	=65	=65	=65	=65	=65
8EE/L	.	(4D-/]	.	(4d-/]	.	2.r	.
8GGn/	.	.	.	.	.	.	.
8BB-/J)	.	8C/)	.	8c/)	.	.	.
(8GG-/L	.	8r	.	8r	.	.	.
8BB-/	.	8r	.	8r	.	.	.
8FF/J	.	[8D-/	.	[8d-/	.	.	.
=66	=66	=66	=66	=66	=66	=66	=66
8EE/L	.	(8D-/L]	.	(8d-/L]	.	2.r	.
8GGn/	.	8C/	.	8c/	.	.	.
8DD-/J	.	[8B-/J)	.	[8b-/J)	.	.	.
8CC/L	.	(8B-/L]	.	(8b-/L]	.	.	.
8EE/	.	8G/	.	8g/	.	.	.
8GG/J)	.	8c/J)	.	8cc/J)	.	.	.
=67	=67	=67	=67	=67	=67	=67	=67
8FF/	.	8A-/	.	8a-/	.	2.r	.
8r	.	(8c\L	.	8r	.	.	.
8r	.	8e\J	.	8r	.	.	.
4r	.	8f\L	.	4r	.	.	.
.	.	8c\	.	.	.	.	.
8r	.	8B-\J)	.	8r	.	.	.
=68	=68	=68	=68	=68	=68	=68	=68
4r	.	(8A-/L	.	4r	.	4r	.
.	.	8c/	.	.	.	.	.
8r	.	8G/J)	.	8r	.	8r	.
8r	.	(8F/L	.	8r	.	8r	.
8r	.	8A-/	.	8r	.	8r	.
8BB-/	.	8E-/J	.	[8a-/	.	[8cc-\	.
=69	=69	=69	=69	=69	=69	=69	=69
4BB-/	p	8D/L	.	4a-/_	.	(4cc-\]	.
.	.	8F/	.	.	.	.	.
8r	.	8A-/J)	.	8a-/]	.	8b-\)	.
8r	.	(8F/L	.	8r	.	8r	.
8r	.	8A-/	.	8r	.	8r	.
8BB-/	.	8E-/J	.	[8a-/	.	[8cc-\	.
=70	=70	=70	=70	=70	=70	=70	=70
4BB-/	p	8D/L	.	4.a-/]	.	(4cc-\]	.
.	.	8F/	.	.	.	.	.
8r	.	8A-/J)	.	.	.	8b-\)	.
8r	.	(8F/L	.	8r	.	8r	.
8r	.	8A-/	.	8r	.	8r	.
8BB-/	.	8E-/J	.	[8a-/	.	[8cc-\	p
=71	=71	=71	=71	=71	=71	=71	=71
4BB-/	p	8D/L	.	4a-/]	.	8cc-\L]	.
.	.	8F/	.	.	.	(8b-\	.
8r	.	8A-/J)	.	8a-/	.	[8aa-\J)	.
4BB-/	.	(8D/L	.	(8a-/L	.	(8aa-\L]	.
.	.	8F/	.	8f/	.	8ff\	.
8r	.	8B-/J)	.	8b-/J)	.	(8bb-\J)	.
=72	=72	=72	=72	=72	=72	=72	=72
[2.BB-/	.	8E-/L	.	8g-/	.	8gg-\)	.
.	.	8G-/	.	8r	.	8r	.
.	.	([8B-/J	.	8r	.	[8b-\	.
.	.	8B-/L]	.	4r	.	(8b-\L]	.
.	.	8G-/	.	.	.	8ee-\	.
.	.	8E-/J	.	8r	.	8gg-\J	.
=73	=73	=73	=73	=73	=73	=73	=73
2.BB-/_	.	8D/L	.	2.r	.	8aa-\L	.
.	.	8F/)	.	.	.	8ff\)	.
.	.	([8B-/J	.	.	.	([8b-\J	.
.	.	8B-/L]	.	.	.	8b-\L]	.
.	.	8A-/	.	.	.	8dd\	.
.	.	8F/J	.	.	.	8ff\J	.
=74	=74	=74	=74	=74	=74	=74	=74
4BB-/]	.	8E-/L	.	8r	.	8gg-\L	.
.	.	8G-/)	.	8r	.	8ee-\)	.
([8BB-/	.	[8B-/J	.	([8B-/	.	[8b-\J	.
8BB-/L]	.	4.B-/_	.	8B-/L]	.	4.b-\_	.
8GG-/	.	.	.	8e-/	.	.	.
8EE-/J	.	.	.	8g-/J	.	.	.
=75	=75	=75	=75	=75	=75	=75	=75
8DD/L	.	2.B-/_	.	8a-/L	.	2.b-\_	.
8FF/)	.	.	.	8f/)	.	.	.
([8BB-/J	.	.	.	([8B-/J	.	.	.
8BB-/L]	.	.	.	8B-/L]	.	.	.
8AA-/	.	.	.	8d/	.	.	.
8FF/J	.	.	.	8f/J	.	.	.
=76	=76	=76	=76	=76	=76	=76	=76
8EE-/L	.	4B-/]	.	8g-/L	.	4b-\]	.
8GG-/	.	.	.	8e-/)	.	.	.
8BB-/J)	.	[8G-/	.	[8B-/J	.	[8b-\	.
(8E-/L	.	4.G-/]	.	(8B-/L]	.	8b-\L]	.
8BB-/	.	.	.	8e-/	.	8ee-\	.
8GG-/J)	.	.	.	8g-/J)	.	8gg-\J	.
=77	=77	=77	=77	=77	=77	=77	=77
(8E-/L	.	[4.F/	.	(8An/L	.	(8an\L	.
8C/	.	.	.	8c/	.	8cc\	.
8AAn/J)	.	.	.	[8f/J)	.	8ff\J	.
(8C/L	.	(8F/L]	.	4.A/ 4.f/]	.	8f\L	.
8AA/	.	8c/	.	.	.	8cc\	.
8FF/J)	.	8e-/J)	.	.	.	8ee-\J)	.
=78	=78	=78	=78	=78	=78	=78	=78
(8D-/L	p	8d-\	p	4B-/ 4f/	p	8dd-\	p
8BB-/)	.	8r	.	.	.	8r	.
[8FF/J	.	([8d-\	.	8r	.	[8ff\	.
4.FF/_	.	8d-/L]	.	4r	.	(8ff\L]	.
.	.	8B-/	.	.	.	8bb-\	.
.	.	[8F/J	.	8r	.	8ddd-\J	.
=79	=79	=79	=79	=79	=79	=79	=79
2.FF/_	.	8F/L]	.	2.r	.	8eee-\L	.
.	.	8c/	.	.	.	8ccc\)	.
.	.	([8e-/J)	.	.	.	([8ff\J	.
.	.	8e-/L]	.	.	.	8ff\L]	.
.	.	8c/	.	.	.	8aa\	.
.	.	[8F/J	.	.	.	8ccc\J	.
=80	=80	=80	=80	=80	=80	=80	=80
4FF/]	.	8F/L]	.	8r	.	8ddd-\L	.
.	.	8B-/	.	8r	.	8bb-\)	.
(8D-/	.	8d-/J)	.	([8f/	.	[8ff\J	.
8D-/L	.	[4.F/	.	8f/L]	.	4.ff\_	.
8BB-/	.	.	.	8b-/	.	.	.
[8FF/J	.	.	.	8dd-/J	.	.	.
=81	=81	=81	=81	=81	=81	=81	=81
8FF/L]	.	2.F/_	.	8ee-/L	.	2.ff\_	.
8C/)	.	.	.	8cc/)	.	.	.
([8E-/J	.	.	.	([8f/J	.	.	.
8E-/L]	.	.	.	8f/L]	.	.	.
8C/	.	.	.	8a/	.	.	.
[8FF/J	.	.	.	8cc/J	.	.	.
=82	=82	=82	=82	=82	=82	=82	=82
8FF/L]	.	4F/]	.	8dd-/L	.	4ff\]	.
8BB-/)	.	.	.	8b-/)	.	.	.
[8D-/J	.	[8B-/	.	[8f/J	.	[8ff\	.
(8D-/L]	.	4.B-/_	.	(8f/L]	.	(8ff\L]	.
8BB-/	.	.	.	8b-/	.	8bb-\	.
8FF/J)	.	.	.	8dd-/J)	.	8ddd-\J)	.
=83	=83	=83	=83	=83	=83	=83	=83
*	*	*^	*	*	*	*	*
(8C/L	.	4.B-/_	2.C\	.	(8en/L	.	(8een\L	.
8GG/	.	.	.	.	8g/	.	8gg\	.
8EE/J)	.	.	.	.	8cc/J)	.	8ccc\J)	.
(8GG/L	.	4B-/]	.	.	(8c/L	.	(8cc\L	.
8EE/	.	.	.	.	8g/	.	8gg\	.
8CC/J)	.	8G/	.	.	8b-/J)	.	8bb-\J	.
*	*	*v	*v	*	*	*	*	*
=84	=84	=84	=84	=84	=84	=84	=84
(8FF/L	f	4C/ 4A-/	f	4a-/	f	4aa-\)	f
8AA-/	.	.	.	.	.	.	.
8C/J	>	([8c\	.	[8f/	.	[8a-/	.
8F\L	.	4c\]	.	4.f/_	>	4.a-/_	>
8A-\	.	.	.	.	.	.	.
8F\J)	.	8d-\	.	.	.	.	.
=85	=85	=85	=85	=85	=85	=85	=85
(8D-/L	.	4.Bn/	.	4.f/_	.	4.a-/_	.
8F/	.	.	.	.	.	.	.
8Dn/J	.	.	.	.	.	.	.
8BBn/L	.	4.d\)	.	4f/]	.	(4a-/]	.
8D/	.	.	.	.	.	.	.
8GG/J)	.	.	.	8f/	.	8g/)	.
=86	=86	=86	=86	=86	=86	=86	=86
4C/	f	(8C/L	f	4e-/	f	8g/	f
.	.	8E-/	.	.	.	8r	.
8r	.	8G/J	.	([8g/	.	8cc\ [8ee-\	.
4r	.	8c\L	.	4g/]	.	4.cc\ 4.ee-\_	.
.	.	8e-\	.	.	.	.	.
8r	.	8c\J	.	8a-/	.	.	.
=87	=87	=87	=87	=87	=87	=87	=87
4r	.	8A-/L	>	4.f#/	.	[4.cc\ 4.ee-\_	.
.	.	8c/	.	.	.	.	.
8r	.	8An/J	.	.	.	.	.
8r	.	8F#/L	.	4.an/)	.	4cc\] 4ee-\]	.
8r	.	8A/	.	.	.	.	.
([8DD/	p	8D/J)	.	.	.	8cc\ 8dd\	.
=88	=88	=88	=88	=88	=88	=88	=88
8DD/L]	.	[2.D/	p	4g/	p	8b-\ 8dd\	p
8GG/	.	.	.	.	.	8r	.
[8BB-/J	.	.	.	8r	.	([8dd\	.
8BB-/L]	.	.	.	4r	.	8dd\L]	.
8GG/)	.	.	.	.	.	8gg\	.
([8DD/J	.	.	.	8r	.	8bb-\J	.
=89	=89	=89	=89	=89	=89	=89	=89
8DD/L]	.	2.D/_	.	2.r	.	8ccc\L	.
8AA/	.	.	.	.	.	8aa\)	.
[8C/J	.	.	.	.	.	[8dd\J	.
8C/L]	.	.	.	.	.	(8dd\L]	.
8AA/)	.	.	.	.	.	8ff#\	.
([8DD/J	.	.	.	.	.	8aa\J	.
=90	=90	=90	=90	=90	=90	=90	=90
8DD/L]	.	4D/]	.	8r	.	8bb-\L	.
8GG/	.	.	.	8r	.	8gg\)	.
8BB-/J)	.	[8D/	.	[8d/	.	[8dd\J	.
4GG/	.	(8D/L]	.	(8d/L]	.	4.dd\_	.
.	.	8G/	.	8g/	.	.	.
8r	.	8B-/J	.	8b-/J	.	.	.
=91	=91	=91	=91	=91	=91	=91	=91
4FF#/	.	8c/L	.	8cc/L	.	2.dd\_	.
.	.	8A/)	.	8a/)	.	.	.
8r	.	([8D/J	.	([8d/J	.	.	.
4DD/	.	8D/L]	.	8d/L]	.	.	.
.	.	8F#/	.	8f#/	.	.	.
8r	.	8A/J)	.	8a/J)	.	.	.
=92	=92	=92	=92	=92	=92	=92	=92
(8GG/L	f	4B-/	f	4b-/	f	8dd\]	f
8BB-/	.	.	.	.	.	8r	.
8E-/J	.	8r	.	8r	.	[8gg\	.
8G\L	.	8r	.	8r	.	(8gg\L]	.
8B-\	.	8r	.	8r	.	8ee-\	.
8G\J)	.	[8g\	.	[8b-/	.	8dd\J)	.
=93	=93	=93	=93	=93	=93	=93	=93
8r	.	4.g\_	p	4.b-/_	p	(4cc#\	p
(8G\L	p	.	.	.	.	.	.
8E\J)	.	.	.	.	.	8een\)	.
8r	.	(8g\L]	.	(8b-/L]	.	(4ee\	.
(8C#/L	.	8e\	.	8a/)	.	.	.
8AA/J)	.	8A\J)	.	8a/J	.	8gg\)	.
=94	=94	=94	=94	=94	=94	=94	=94
4D\	f	(8D/L	f	8a/	f	4ff\	f
.	.	8F/	.	8r	.	.	.
8r	.	8B-/J	.	[8dd\	.	8r	.
4r	.	8d\L	.	(8dd\L]	.	4r	.
.	.	8f\	.	8b-\	.	.	.
8r	.	8d\J)	.	8a\J)	.	[8dd\ [8ff\	.
=95	=95	=95	=95	=95	=95	=95	=95
*	*	*	*	*	*	*^	*
4r	.	8r	.	(4g#/	p	4.dd\]	4.ff\_	.
.	.	(8d/L	p	.	.	.	.	.
8r	.	8Bn/J)	.	8bn/)	.	.	.	.
8r	.	8r	.	(4b\	.	(8ff/L]	4dd\	.
8r	.	(8G#/L	.	.	.	8ee/)	.	.
8EE/	p	8E/J)	.	8dd\)	.	8ee/J	8g#\	.
*	*	*	*	*	*	*v	*v	*
=96	=96	=96	=96	=96	=96	=96	=96
4AA/	.	8A/L	.	(8cc/L	.	(4ee\	.
.	.	(8A/	.	8a/	.	.	.
8r	.	8B/J	.	8b/J	.	[8aa\	.
4FF/	.	8c/L	.	8cc/L	.	4aa\]	.
.	.	8A/	.	8a/	.	.	.
8r	.	8F/J)	.	8f/J)	.	8dd#\)	.
=97	=97	=97	=97	=97	=97	=97	=97
4EE/	.	(8E/L	.	(8e/L	.	[2.ee\	.
.	.	8G#/	.	8g#/	.	.	.
8r	.	8B/J)	.	8b/J)	.	.	.
8r	.	(8E/L	.	(8e/L	.	.	.
8r	.	8B/	.	8b/	.	.	.
8GG#/	.	8d/J)	.	8dd/J)	.	.	.
=98	=98	=98	=98	=98	=98	=98	=98
4AA/	p	(8c/L	p	(8cc/L	p	8ee\L]	p
.	.	8A/	.	8a/	.	(8aa\	.
8r	.	8B/J	.	8b/J	.	8gg#\J	.
4FF/	.	8c/L	.	8cc/L	.	4aa\	.
.	.	8A/	.	8a/	.	.	.
8r	.	8F/J)	.	8f/J)	.	8dd#\)	.
=99	=99	=99	=99	=99	=99	=99	=99
4EE/	.	(8E/L	.	(8e/L	.	[2.ee\	.
.	.	8G#/	.	8g#/	.	.	.
8r	.	8B/J)	.	8b/J)	.	.	.
8r	.	(8E/L	.	(8e/L	.	.	.
8r	.	8B/	.	8b/	.	.	.
8GG#/	.	8d/J)	.	8dd/J)	.	.	.
=100	=100	=100	=100	=100	=100	=100	=100
4AA/	p	(8c/L	p	(8cc/L	p	8ee\L]	p
.	.	8A/	.	8a/	.	(8aa\	.
8r	.	8B/J	.	8b/J	.	8gg#\J	.
4FF/	.	8c/L	.	8cc/L	.	4aa\	.
.	.	8A/	.	8a/	.	.	.
8r	.	8F/J)	.	8f/J)	.	8dd#\)	.
=101	=101	=101	=101	=101	=101	=101	=101
4EE/	.	(8E/L	.	(8e/L	.	([4.ee\	<
.	.	8G#/	.	8g#/	.	.	.
8r	.	8B/J)	.	8b/J)	.	.	.
8r	.	(8c/L	.	(8cc/L	.	4ee\]	>
8r	.	8A/	.	8a/	.	.	.
8FF/	.	8F/J)	.	8f/J)	.	8dd#\)	.
=102	=102	=102	=102	=102	=102	=102	=102
4EE/	.	(8E/L	.	(8e/L	.	([4.ee\	<
.	.	8G#/	.	8g#/	.	.	.
8r	.	8B/J)	.	8b/J)	.	.	.
8r	.	(8c/L	.	(8cc/L	.	4ee\]	>
8r	.	8A/	.	8a/	.	.	.
8FF/	.	8F/J)	.	8f/J)	.	8dd#\)	.
=103	=103	=103	=103	=103	=103	=103	=103
4EE/	.	(8E/L	.	(8e/L	.	8ee\	.
.	.	8G#/	.	8g#/	.	8r	.
8r	.	8B/J)	.	&(8b/J&))	.	8e/	.
4EE/	.	(8E/L	.	(8e/L	.	8r	.
.	.	8G#/	.	8g#/	.	8r	.
8r	.	8B/J)	.	8b/J)	.	8e/	.
=104	=104	=104	=104	=104	=104	=104	=104
4EE/	.	(8E/L	.	(8e/L	.	8r	.
.	.	8G#/	.	8g#/	.	8r	.
8r	.	8B/J)	.	8b/J)	.	8e/	.
4EE/	.	[4.E/	.	8e/	.	8r	.
.	.	.	.	8r	.	16f#'/LL	.
.	.	.	.	.	.	16g#'/	.
8DD/	.	.	.	8r	.	16a/	.
.	.	.	.	.	.	16bn/JJ	.
=105	=105	=105	=105	=105	=105	=105	=105
4CC#/	.	(4.E/]	.	2.r	.	8cc#'/L	.
.	.	.	.	.	.	8b'/	.
8r	.	.	.	.	.	8a'/J	.
4DD/	.	8E#/L	.	.	.	(8g#/L	.
.	.	8F#/)	.	.	.	8a/)	.
8r	.	8F#'/J	.	.	.	8f#'/J	.
=106	=106	=106	=106	=106	=106	=106	=106
4EE/	.	(8G#/L	.	(8B/L	.	[4.e/	.
.	.	8A/	.	8c#/	.	.	.
8r	.	8B/J	.	8d/J	.	.	.
4AA/	.	4A/)	.	4c#/)	.	16e\LL]	.
.	.	.	.	.	.	16ee'\	.
.	.	.	.	.	.	16ff#'\	.
.	.	.	.	.	.	16gg#'\	.
8r	.	8r	.	8r	.	16aa'\	.
.	.	.	.	.	.	16bb'\JJ	.
=107	=107	=107	=107	=107	=107	=107	=107
4CC#/	.	(4.E/	.	(4.e/	.	8ccc#'\L	.
.	.	.	.	.	.	8bb'\	.
8r	.	.	.	.	.	8aa'\J	.
4DD/	.	8E#/L	.	8e#/L	.	(8gg#\L	.
.	.	8F#/)	.	8f#/)	.	8aa\)	.
8r	.	8F#'/J	.	8f#'/J	.	8ff#'\J	.
=108	=108	=108	=108	=108	=108	=108	=108
4EE/	.	(8G#/L	.	(8B/L	.	[4.ee\	.
.	.	8A/	.	8c#/	.	.	.
8r	.	8B/J)	.	8d/J	.	.	.
4AA/	.	8A'/L	.	4c#/)	.	4ee\]	.
.	.	16F#'/L	.	.	.	.	.
.	.	16G#'/	.	.	.	.	.
8r	.	16A'/	.	8r	.	8r	.
.	.	16B'/JJ	.	.	.	.	.
=109	=109	=109	=109	=109	=109	=109	=109
8r	.	8c#'/L	.	4r	.	2.r	.
16GG#'/LL	.	8B'/	.	.	.	.	.
16AA'/	.	.	.	.	.	.	.
16BB'/	.	8A'/J	.	8r	.	.	.
16C#'/JJ	.	.	.	.	.	.	.
4.D/	.	(8G#/L	.	8r	.	.	.
.	.	8A/)	.	16f#'/LL	.	.	.
.	.	.	.	16g#'/	.	.	.
.	.	8F#'/J	.	16a'/	.	.	.
.	.	.	.	16b'/JJ	.	.	.
=110	=110	=110	=110	=110	=110	=110	=110
4.E\	.	[4.E/	.	(4.g#/	.	8r	.
.	.	.	.	.	.	16b'\LL	.
.	.	.	.	.	.	16cc#'\	.
.	.	.	.	.	.	16dd'\	.
.	.	.	.	.	.	16ee'\JJ	.
4AA/	.	8E/L]	.	8a/)	.	8cc#\	.
.	.	16F#'/L	.	8r	.	8r	.
.	.	16G#'/	.	.	.	.	.
8r	.	16A'/	.	8r	.	8r	.
.	.	16B'/JJ	.	.	.	.	.
=111	=111	=111	=111	=111	=111	=111	=111
8r	.	8c#'/L	.	4r	.	2.r	.
16GG#'/LL	.	8B'/	.	.	.	.	.
16AA'/	.	.	.	.	.	.	.
16BB'/	.	8A'/J	.	8r	.	.	.
16C#'/JJ	.	.	.	.	.	.	.
4D/	.	(8G#/L	.	8r	.	.	.
.	.	8A/)	.	16f#'/LL	.	.	.
.	.	.	.	16g#'/	.	.	.
8DD/	.	8F#'/J	.	16a'/	.	.	.
.	.	.	.	16b'/JJ	.	.	.
=112	=112	=112	=112	=112	=112	=112	=112
(4EE/	.	(4E/	.	[8cc#\L	.	8r	.
.	.	.	.	16cc#\L]	.	16ee'\LL	.
.	.	.	.	16dd'\	.	16ff#'\	.
[8E\)	.	[8e\)	.	16b'\	.	16gg'\	.
.	.	.	.	16cc#'\JJ	.	16aa#'\JJ	.
(8E\L]	.	(8e\L]	.	8dd\	.	16bb'\LL	.
.	.	.	.	.	.	16ccc#'\	.
8D\)	.	8d\)	.	8r	.	16ddd'\	.
.	.	.	.	.	.	16eee'\	.
8BB'\J	.	8B'\J	.	8e/ 8dd/	.	16fff#'\	.
.	.	.	.	.	.	16ggg#'\JJ	.
=113	=113	=113	=113	=113	=113	=113	=113
4AA/	p	8A/L	p	8e/ 8cc#/L	p	(4aaa\	p
.	.	(8A/	.	(8a/	.	.	.
8r	.	8c#/J	.	8cc#/J	.	8eee\	.
4AA/	.	8B/L	.	8b/L	.	8fff\L	.
.	.	8G#/	.	8g#/	.	8ddd\	.
8r	.	8d/J)	.	8dd/J)	.	8eee\J)	.
=114	=114	=114	=114	=114	=114	=114	=114
4AA/	.	(8A/L	.	(8a/L	.	(4ccc#\	.
.	.	8E/	.	8e/	.	.	.
8r	.	8c#/J	.	8cc#/J	.	8aa\	.
4AA/	.	8G#/L	.	8g#/L	.	8ffn\L	.
.	.	8D/	.	8d/	.	8dd\	.
8r	.	8B/J)	.	8b/J)	.	8ee\J)	.
=115	=115	=115	=115	=115	=115	=115	=115
4AA/	.	(8E/L	.	(8e/L	.	(4cc#\	.
.	.	8C#/	.	8c#/	.	.	.
8r	.	8A/J)	.	8a/J)	.	8a/	.
4AA/	.	(8D/L	.	8r	.	8f/L	.
.	.	8Fn/	.	8G#/L	.	8d/	.
8r	.	8E/J)	.	8G#/J	.	8e/J)	.
=116	=116	=116	=116	=116	=116	=116	=116
4AA/	.	(4C#/	.	8r	.	(4e/	.
.	.	.	.	(8A/L	.	.	.
8r	.	8D/)	.	8G/J)	.	8f/	.
4AA/	.	(4C#/	.	8r	.	4e/	.
.	.	.	.	(8A/L	.	.	.
8r	.	8D/)	.	8G/J)	.	8f/)	.
=117	=117	=117	=117	=117	=117	=117	=117
4AA/	.	(4C#/	.	8r	.	(4e/	.
.	.	.	.	(8A/L	.	.	.
8r	.	8D/)	.	8G/J)	.	8f/	.
4AA/	.	(4C#/	.	8r	.	4e/	.
.	.	.	.	(8A/L	.	.	.
8r	.	8D/)	.	8G/J)	.	8f/)	.
=118	=118	=118	=118	=118	=118	=118	=118
4AA/	pp	4D/	pp	4A/	pp	4f/	pp
8r	.	8r	.	8r	.	8r	.
8r	.	4r	.	8r	.	8r	.
8A\L	.	.	.	8d/L	.	8f/L	.
8A\J	.	8r	.	8d/J	.	8f/J	.
=119	=119	=119	=119	=119	=119	=119	=119
4B-\	.	4r	.	4d/	.	4f/	.
8r	.	8r	.	8r	.	8r	.
8r	.	8r	.	8r	.	8r	.
8B-\L	.	8B-/L	.	8d/L	.	8f/L	.
8B-\J	.	8B-/J	.	8d/J	.	8f/J	.
=120	=120	=120	=120	=120	=120	=120	=120
4A-\	f	4B-\ 4f\	f	4B-/ 4d/	f	8b-'\L	f
.	.	.	.	.	.	16b-'\L	.
.	.	.	.	.	.	16cc'\	.
8r	.	8r	.	8r	.	16ddn'\	.
.	.	.	.	.	.	16ee-'\JJ	.
4r	.	4r	.	4r	.	8ffn'\L	.
.	.	.	.	.	.	16dd'\L	.
.	.	.	.	.	.	16ee-'\	.
8r	.	8r	.	8r	.	16ff'\	.
.	.	.	.	.	.	16gg'\JJ	.
=121	=121	=121	=121	=121	=121	=121	=121
4r	.	2.r	.	2.r	.	8aa-\L	.
.	.	.	.	.	.	16ffn'\L	.
.	.	.	.	.	.	16gg'\	.
8r	.	.	.	.	.	16aa-'\	.
.	.	.	.	.	.	16bb-'\JJ	.
8r	.	.	.	.	.	16ccc'\LL	.
.	.	.	.	.	.	16bb-'\	.
16r	.	.	.	.	.	16ccc'\	.
16C'/LL	.	.	.	.	.	16ddd'\	.
16BB-'/	.	.	.	.	.	16eee-'\	.
16AA-'/JJ	.	.	.	.	.	16fff'\JJ	.
=122	=122	=122	=122	=122	=122	=122	=122
4GG/	.	4r	.	(4.B-/	p	8ggg'\L	p
.	.	.	.	.	.	8fff'\	.
8r	.	8r	.	.	.	8eee-'\J	.
4AA-/	.	8r	.	8B-/L	.	(8ddd\L	.
.	.	8r	.	8c/)	.	8eee-\)	.
8r	.	8A-'/	p	8c'/J	.	8ccc'\J	.
=123	=123	=123	=123	=123	=123	=123	=123
4.BB-/	.	(8F/L	.	(8d/L	.	[4.bb-\	.
.	.	8G/	.	8e-/	.	.	.
.	.	8A-/J	.	8f/J	.	.	.
8E-/L	.	4G/)	.	4e-/)	.	8bb-\L]	.
16D'/L	.	.	.	.	.	16ccc'\L	.
16C'/	.	.	.	.	.	16ddd'\	.
16BB-/	.	8r	.	8r	.	16eee'\	.
16AA-'/JJ	.	.	.	.	.	16fff'\JJ	.
=124	=124	=124	=124	=124	=124	=124	=124
4GG/	.	4r	.	(4.B/	.	8ggg'\L	.
.	.	.	.	.	.	8fff'\	.
8r	.	8r	.	.	.	8eee-'\J	.
4AA-/	.	4r	.	8Bn/L	.	(8ddd\L	.
.	.	.	.	8c/)	.	8eee-\)	.
8r	.	8A-/	.	8c'/J	.	8ccc'\J	.
=125	=125	=125	=125	=125	=125	=125	=125
4.BB-/	.	(8F/L	.	8d/L	.	[4.bb-\	.
.	.	8G/	.	(8e-/	.	.	.
.	.	8A-/J	.	8f/J	.	.	.
4.BB-/	.	4B-/	.	4g/	.	(16bb-\LL]	.
.	.	.	.	.	.	16aa-\	.
.	.	.	.	.	.	16gg\	.
.	.	.	.	.	.	16aa-\	.
.	.	8A-/)	.	8f/)	.	16ff\	.
.	.	.	.	.	.	16gg\JJ)	.
=126	=126	=126	=126	=126	=126	=126	=126
4EE-/	p	(8G/L	p	(8e-/L	p	(16ee-\LL	p
.	.	.	.	.	.	16dd\	.
.	.	8B-/	.	8g/	.	16ee-\	.
.	.	.	.	.	.	16ff\	.
8r	.	8G/J	.	8e-/J	.	16gg\	.
.	.	.	.	.	.	16aa-\JJ)	.
4EE-/	.	8d\L	.	8f/L	.	(16ff\LL	.
.	.	.	.	.	.	16gg\	.
.	.	8B-\	.	8d/	.	16aa-\	.
.	.	.	.	.	.	16bb-\	.
8r	.	8f\J)	.	8a-/J)	.	16gg\	.
.	.	.	.	.	.	16aa-\JJ)	.
=127	=127	=127	=127	=127	=127	=127	=127
4EE-/	.	(8e-\L	.	(8g/L	.	(16bb-\LL	.
.	.	.	.	.	.	16ccc\	.
.	.	8B-\	.	8e-/	.	16ddd\	.
.	.	.	.	.	.	16eee-\	.
8r	.	8g\J)	.	8b-/J)	.	16fff\	.
.	.	.	.	.	.	16ggg\JJ)	.
4EE-/	.	(8d\L	.	(8f/L	.	(16aaa-\LL	.
.	.	.	.	.	.	16ggg\	.
.	.	8B-\	.	8d/	.	16aaa-\	.
.	.	.	.	.	.	16fff\	.
8r	.	8f\J)	.	8a-/J)	.	16ggg\	.
.	.	.	.	.	.	16aaa-\JJ)	.
=128	=128	=128	=128	=128	=128	=128	=128
4EE-/	.	(8e-/L	.	(8g/L	.	[4.bbb-\	.
.	.	8B-/	.	8e-/	.	.	.
8r	.	[8G/J)	.	[8B-/J)	.	.	.
4EE-/	p	(8G/L]	.	(8B-/L]	.	(16bbb-\LL]	.
.	.	.	.	.	.	16aaa-\	.
.	.	8F/	.	8d/	.	16ggg\	.
.	.	.	.	.	.	16fff\	.
8r	.	[8A-/J)	.	[8f/J)	.	16aaa-\	.
.	.	.	.	.	.	16ggg\JJ)	.
=129	=129	=129	=129	=129	=129	=129	=129
4EE-/	.	(8A-/L]	.	(8f/L]	.	(16fff\LL	.
.	.	.	.	.	.	16eee-\	.
.	.	8G/	.	8e-/	.	16ddd\	.
.	.	.	.	.	.	16ccc\	.
8r	.	8B-/J)	.	[8g/J)	.	16bb-\	.
.	.	.	.	.	.	16aa-\JJ)	.
8EE-/	.	8B-/L	.	(8g/L]	.	(16gg\LL	.
.	.	.	.	.	.	16bb-\	.
8r	.	8d/	.	8f/	.	16aa-\	.
.	.	.	.	.	.	16gg\	.
8B\	.	8d/J	.	8a-/J)	.	16ff\	.
.	.	.	.	.	.	16gg\JJ)	.
=130	=130	=130	=130	=130	=130	=130	=130
8e-\L	.	[2.e-\	.	[2.g/	.	(4.ee-\	.
8d\	.	.	.	.	.	.	.
8c\J	.	.	.	.	.	.	.
8B-\L	.	.	.	.	.	[4.gg\)	.
8c\	.	.	.	.	.	.	.
8A-\J	.	.	.	.	.	.	.
=131	=131	=131	=131	=131	=131	=131	=131
8G\L	.	(4.e-\]	.	4.g/]	.	(4.gg\]	.
8F\	.	.	.	.	.	.	.
8E-\J	.	.	.	.	.	.	.
8D\L	.	[4.g\)	.	[4.b-\	.	[4.eee-\)	.
8E-\	.	.	.	.	.	.	.
8C\J	.	.	.	.	.	.	.
=132	=132	=132	=132	=132	=132	=132	=132
8BB-/L	.	(4.g\]	.	4.b-\]	.	(4.eee-\]	.
8AA-/	.	.	.	.	.	.	.
8GG/J	.	.	.	.	.	.	.
8FF/L	.	[4.b-\)	.	4.ee-\	.	[4.ggg\)	.
8EE-/	.	.	.	.	.	.	.
8DD/J	.	.	.	.	.	.	.
=133	=133	=133	=133	=133	=133	=133	=133
8CC#/L	.	(4.b-\]	.	[2.een\	.	2.ggg\_	.
8EEn/	.	.	.	.	.	.	.
8DD/J	.	.	.	.	.	.	.
8CC#/L	.	4.a\)	.	.	.	.	.
8EE/	.	.	.	.	.	.	.
8CC#/J	.	.	.	.	.	.	.
=134	=134	=134	=134	=134	=134	=134	=134
8DD/L	.	[2.a\	.	(4.ee\]	.	(4.ggg\]	.
8CC#/	.	.	.	.	.	.	.
8DD/J	.	.	.	.	.	.	.
8CC#/L	.	.	.	[4.dd\)	.	[4.fff\)	.
8DD/	.	.	.	.	.	.	.
8CC#/J	.	.	.	.	.	.	.
=135	=135	=135	=135	=135	=135	=135	=135
8DD/L	.	4.a\]	.	4.dd\]	.	4.fff\]	.
8CC#/	.	.	.	.	.	.	.
8DD/J	.	.	.	.	.	.	.
8CC#/L	.	(4.a\	.	(4.dd\	.	[4.ff\	.
8DD/	.	.	.	.	.	.	.
8DD/J	.	.	.	.	.	.	.
=136	=136	=136	=136	=136	=136	=136	=136
8EE/L	.	4.g#\)	.	4.bn\)	.	4.ff\]	.
8DD#/	.	.	.	.	.	.	.
8EE/J	.	.	.	.	.	.	.
8DD#/L	.	(4.g#\	pp	(4.b\	pp	4.een\	pp
8EE/	pp	.	.	.	.	.	.
8DD#/J	.	.	.	.	.	.	.
=137	=137	=137	=137	=137	=137	=137	=137
*	*	*clefC3	*clefC3	*	*	*	*
8EE/L	.	4.a\	.	4.cc\	.	[2.ee\	.
8DD#/	.	.	.	.	.	.	.
8EE/J	.	.	.	.	.	.	.
8DD#/L	.	4.f#\)	.	4.a/)	.	.	.
8EE/	.	.	.	.	.	.	.
8DD#/J	.	.	.	.	.	.	.
=138	=138	=138	=138	=138	=138	=138	=138
4EE/	.	4g#\	.	4b\	.	4ee\]	.
8r	.	8r	.	8r	.	8r	.
4EE/	.	4r	.	4r	.	4r	.
8r	.	8r	.	8r	.	8r	.
=139	=139	=139	=139	=139	=139	=139	=139
4EE/	.	2.r	.	2.r	.	2.r	.
8r	.	.	.	.	.	.	.
4EE/	.	.	.	.	.	.	.
8r	.	.	.	.	.	.	.
=140	=140	=140	=140	=140	=140	=140	=140
4EE/	f	2.r	.	8r	.	[2.ee\	.
.	.	.	.	8r	.	.	.
8r	.	.	.	(8e/	p	.	.
4EE/	p	.	.	8a/L	.	.	.
.	.	.	.	8b/	.	.	.
8r	.	.	.	8cc/J)	.	.	.
=141	=141	=141	=141	=141	=141	=141	=141
4EE/	.	4r	.	(8b/L	.	2.ee\_	.
.	.	.	.	8a/	.	.	.
8r	.	8r	.	8g#/J	.	.	.
4EE/	.	(8d\L	p	8f/L	.	.	.
.	.	8e\	.	8e/	.	.	.
8r	.	8f\J	.	8d/J	.	.	.
=142	=142	=142	=142	=142	=142	=142	=142
4EE/	.	8e\L	.	8c/L	.	4.ee\]	.
.	.	&(8d\&)	.	8B/	.	.	.
8r	.	8c\J)	.	8A/J)	.	.	.
4EE/	.	(8G#/L	.	[4.e/	.	(8dd\L	.
.	.	8A/	.	.	.	8cc\	.
8r	.	8B/J)	.	.	.	8b\J	.
=143	=143	=143	=143	=143	=143	=143	=143
4EE/	.	(8A/L	.	4.e/_	.	8cc\L	.
.	.	8B/	.	.	.	8b\	.
8r	.	8c/J	.	.	.	8a\J)	.
*	*	*	*	*	*	*^	*
4EE/	.	8d/L	.	(8e/L]	.	(4ee/	4ee\	.
.	.	8c/	.	8f#/	.	.	.	.
8r	.	8B/J)	.	8g#/J)	.	8ryy	8dd\)	.
=144	=144	=144	=144	=144	=144	=144	=144	=144
8AA/L	.	4A/	.	4a/	.	4ee/	4cc\	.
8BB/	.	.	.	.	.	.	.	.
*	*	*	*	*	*	*v	*v	*
8AA/J	.	8r	.	8r	.	8r	.
8GG#/L	.	4r	.	4r	.	4r	.
8AA/	.	.	.	.	.	.	.
8GGn/J	.	8r	.	8r	.	8r	.
=145	=145	=145	=145	=145	=145	=145	=145
8FF/L	.	2.r	.	2.r	.	2.r	.
8EE/	.	.	.	.	.	.	.
8DD/J	.	.	.	.	.	.	.
8CC/L	.	.	.	.	.	.	.
8DD/	.	.	.	.	.	.	.
8DD#/J	.	.	.	.	.	.	.
=146	=146	=146	=146	=146	=146	=146	=146
4EE/	f	4r	.	[2.e/	.	8r	.
.	.	.	.	.	.	8r	.
8r	.	8r	.	.	.	(8ee\	.
4EE/	p	(8c/L	.	.	.	8aa\L	.
.	.	8B/	.	.	.	8bb\	.
8r	.	8A/J)	.	.	.	8ccc\J)	.
=147	=147	=147	=147	=147	=147	=147	=147
4EE/	.	(8G#/L	.	4.e/]	.	(8bb\L	.
.	.	8A/	.	.	.	8aa\	.
8r	.	8B/J)	.	.	.	8gg#\J	.
4EE/	.	(8d/L	.	(8f/L	.	8ff\L	.
.	.	8c/	.	8e/	.	8ee\	.
8r	.	8B/J	.	8d/J	.	8dd\J)	.
=148	=148	=148	=148	=148	=148	=148	=148
4EE/	.	8A/L	.	8c/L	.	(8cc\L	.
.	.	8G#/	.	8B/	.	8b\	.
8r	.	8A/J)	.	8A/J)	.	8a\J)	.
4EE/	.	(8G#/L	.	(8B/L	.	[4.ee\	.
.	.	8A/	.	8c/	.	.	.
8r	.	8B/J	.	8d/J	.	.	.
=149	=149	=149	=149	=149	=149	=149	=149
4EE/	.	8A/L	.	8c/L	.	4.ee\_	.
.	.	8Gn/	.	8B/	.	.	.
8r	.	8F/J)	.	8A/J	.	.	.
4EE/	.	(4E/	.	8G#/L	.	(8ee\L]	.
.	.	.	.	8A/	.	8ff#\	.
8r	.	8D/	.	8B/J	.	8gg#\J	.
=150	=150	=150	=150	=150	=150	=150	=150
8AA/L	.	4C/)	.	4A/)	.	4aa\)	.
8BB/	.	.	.	.	.	.	.
8AA/J	.	8r	.	8r	.	8r	.
8GG#/L	.	4r	.	4r	.	4r	.
8AA/	.	.	.	.	.	.	.
8GGn/J	.	8r	.	8r	.	8r	.
=151	=151	=151	=151	=151	=151	=151	=151
8FF/L	.	2.r	.	2.r	.	4r	.
8GG/	.	.	.	.	.	.	.
8FF/J	.	.	.	.	.	8r	.
8EE/L	.	.	.	.	.	4r	.
8FF/	.	.	.	.	.	.	.
8DD/J	.	.	.	.	.	(8b\	p
=152	=152	=152	=152	=152	=152	=152	=152
4CC/	.	8r	.	8r	.	[4.cc\)	.
.	.	8r	.	8r	.	.	.
8r	.	8E/	p	(8c/	p	.	.
4C/	p	(8B-/L	.	8g/L	.	4cc\]	.
.	.	8A/	.	8a/	.	.	.
8r	.	8E/J)	.	8b-/J)	.	8cc\	.
=153	=153	=153	=153	=153	=153	=153	=153
4FF/	.	(8G/L	.	(8b-/L	.	(8ee\L	.
.	.	8F/)	.	8a/)	.	8ff\)	.
8r	.	8F/J	.	8a/J	.	8ff\J	.
4AA/	.	(8G/L	.	(8e/L	.	8r	.
.	.	8F/	.	8f/	.	8r	.
8r	.	8C#/J)	.	8g/J)	.	(8a/	.
=154	=154	=154	=154	=154	=154	=154	=154
4DD/	.	(8E/L	.	(8g/L	.	8cc#\L	.
.	.	8D/J)	.	8f/J)	.	8dd\J)	.
8r	.	(8A/	.	8a/	.	[8aa\	.
4D\	f	8f\L	.	(8dd\L	.	4.aa\_	.
.	.	8e\	.	8ee\	.	.	.
8r	.	8d\J	.	8ff\J	.	.	.
=155	=155	=155	=155	=155	=155	=155	=155
4AA/	p	8c#/L	.	8ee\L	.	2.aa\_	.
.	.	8B-/	.	8dd\	.	.	.
8r	.	8A/J	.	8cc#\J	.	.	.
4AA/	.	8G/L	.	8b-\L	.	.	.
.	.	8F/	.	8a\	.	.	.
8r	.	8E/J	.	8g\J	.	.	.
=156	=156	=156	=156	=156	=156	=156	=156
4D\	.	8D/L	.	8f/L	.	8aa\L]	.
.	.	8E/	.	8e/	.	(8cc#\	.
8r	.	8F/J)	.	8d/J)	.	8dd\J)	.
4EE/	.	(8Bn/L	.	(4.g#/	.	(8d/L	.
.	.	8c/	.	.	.	8e/	.
8r	.	8d/J	.	.	.	8f/J	.
=157	=157	=157	=157	=157	=157	=157	=157
4AA/	.	8c/L	.	4a/)	.	8e/L	.
.	.	8B/	.	.	.	8d/	.
8AA/	.	8A/J)	.	8a/	.	8c/J)	.
(8C/L	.	[4.E/	.	(8a/L	.	4.f#/ (4.dd#/	.
8BB/	.	.	.	8bn/	.	.	.
8AA/J)	.	.	.	8cc/J	.	.	.
=158	=158	=158	=158	=158	=158	=158	=158
4.EE/	.	4.E/]	.	8b/L	.	&(4.g#/&) 4.ee/)	.
.	.	.	.	8g#/	.	.	.
.	.	.	.	8e/J)	.	.	.
4.EE/	.	(8B/L	.	(4.g#/	.	(8dn/L	.
.	.	8c/	.	.	.	8e/	.
.	.	8d/J	.	.	.	8fn/J	.
=159	=159	=159	=159	=159	=159	=159	=159
4.AA/	.	8c/L	.	4a/)	.	8e/L	.
.	.	8B/	.	.	.	8d/	.
.	.	8A/J)	.	8a/	.	8c/J)	.
(8C/L	.	[4.E/	.	(8a/L	.	4.f#/ (4.dd#/	.
8BB/	.	.	.	8b/	.	.	.
8AA/J)	.	.	.	8cc/J	.	.	.
=160	=160	=160	=160	=160	=160	=160	=160
4.EE/	.	4.E/]	.	8b/L	.	&(4.g#/&) 4.ee/)	.
.	.	.	.	8g#/	.	.	.
.	.	.	.	8e/J)	.	.	.
(8C/L	.	[4.E/	.	(8a/L	.	4.f#/ (4.dd#/	.
8BB/	.	.	.	8b/	.	.	.
8AA/J)	.	.	.	8cc/J	.	.	.
=161	=161	=161	=161	=161	=161	=161	=161
4.EE/	.	4.E/]	.	8b/L	.	&(4.g#/&) 4.ee/)	.
.	.	.	.	8g#/	.	.	.
.	.	.	.	8e/J)	.	.	.
(8F\L	.	(8B/L	.	(8dd\L	.	4.g#/	.
8E\)	.	8c/	.	8ee\	.	.	.
&(8D\J&)	.	8d/J)	.	8ff\J)	.	.	.
=162	=162	=162	=162	=162	=162	=162	=162
(4C/	p	(4c\	p	(4ee\	p	8a/	p
.	.	.	.	.	.	[4aa\	.
8F\	.	8F/	.	8a/	.	.	.
4D\	.	4f\	.	4cc\	.	8aa\L]	.
.	.	.	.	.	.	8aa\	.
8E\)	.	8B/)	.	8b\)	.	8gg#\J	.
=163	=163	=163	=163	=163	=163	=163	=163
(4F\	.	(8d/L	.	(4b\	.	4gg#\	.
.	.	8G#/	.	.	.	.	.
8E\	.	8A/J	.	8cc\	.	8r	.
8D/L	.	8B/L	.	8dd\L	.	4r	.
8C/	.	8c/	.	8ee\	.	.	.
8BB/J)	.	8d/J)	.	8ff\J)	.	(8g#/	.
=164	=164	=164	=164	=164	=164	=164	=164
8C/	f	8c/L	f	(8ee\L	f	8a/)	f
8r	.	8A/	>	8cc\)	>	[4aa\	>
8FF/	>	[8F/J	.	8a\J	.	.	.
4DD/	.	8F/L]	.	4cc\	.	8aa\L]	.
.	.	8f/	.	.	.	(8aa\	.
8EE/	.	8E/ 8d/J	.	8b\	.	8gg#\J)	.
=165	=165	=165	=165	=165	=165	=165	=165
8AA/L	p	4E/ 4c/	p	4a/	p	4aa\	p
8GG/	.	.	.	.	.	.	.
8EE/J	.	8r	.	8r	.	8r	.
8GG/L	.	4r	.	4r	.	4r	.
8FF/	.	.	.	.	.	.	.
8DD/J	.	8r	.	(8B/	.	8r	.
=166	=166	=166	=166	=166	=166	=166	=166
4CC/	.	4r	.	[2.c/)	.	8r	.
.	.	.	.	.	.	8r	.
8c\	.	8e\	p	.	.	(8cc\	.
8B-\L	.	(8e\L	.	.	.	8ggn\L	.
8A\	.	8f\	.	.	.	8aa\	.
8E\J	.	8g\J)	.	.	.	8bb-\J)	.
=167	=167	=167	=167	=167	=167	=167	=167
8E\L	.	(8g\L	.	4c/]	.	(8bb-\L	.
8F\	.	8f\	.	.	.	8aa\)	.
8F\J	.	8c\J)	.	8f/	.	8aa'\J	.
8G\L	.	(8c#\L	.	(8e/L	.	[4.aa\	.
8F\	.	8d\	.	8f/	.	.	.
8C#\J	.	8e\J)	.	8g/J)	.	.	.
=168	=168	=168	=168	=168	=168	=168	=168
8C#\L	.	(8e\L	.	(8g/L	.	4aa\]	.
8D\	.	8d\)	.	8f/)	.	.	.
8D\J	.	8d\J	.	(8f/J	.	(8aa\	.
8F\L	.	[4.A/	.	8dd\L	.	8ddd\L	.
8E\	.	.	.	8ee\	.	8eee\	.
8D\J	.	.	.	8ff\J)	.	8fff\J)	.
=169	=169	=169	=169	=169	=169	=169	=169
8C#/L	.	4.A/]	.	(8ee\L	.	(8eee\L	.
8BB-/	.	.	.	8dd\	.	8ddd\	.
8AA/J	.	.	.	8cc#\J	.	8ccc#\J	.
8GG/L	.	(8A/L	.	8b-\L	.	8bb-\L	.
8FF/	.	8Bn/	.	8a\	.	8aa\	.
8EE/J	.	8c#/J)	.	8g\J)	.	8gg\J)	.
=170	=170	=170	=170	=170	=170	=170	=170
8DD/L	.	(8d/L	.	(8f/L	.	(8ff\L	.
8EE/	.	8c#/	.	8e/	.	8ee\	.
8FF/J	.	8A/J)	.	8d/J)	.	8dd\J)	.
8EE/L	.	(8B/L	.	(8d/L	.	(4.gg\	.
8E/	.	8cn/	.	8e/	.	.	.
8EE/J	.	8d/J	.	8f/J	.	.	.
=171	=171	=171	=171	=171	=171	=171	=171
8E/L	.	8c/L	.	8e/L	.	4aa\)	.
8AA/	.	8B/	.	8d/	.	.	.
8AA/J	.	8A/J)	.	8c/J)	.	[8aa\	.
8C/L	.	(4.d#\	.	(4.f#/	.	(8aa\L]	.
8BB/	p	.	.	.	.	8bbn\	.
8AA/J	.	.	.	.	.	8ccc\J	.
=172	=172	=172	=172	=172	=172	=172	=172
8EE/L	.	4.e\)	.	4.g#/)	.	8bb\L	.
8GG#/	.	.	.	.	.	8gg#\	.
8BB/J	.	.	.	.	.	8ee\J)	.
8E/L	.	(8B/L	.	(8dd\L	.	(4.gg#\	.
8EE/	.	8c/	.	8ee\	.	.	.
8E/J	.	8dn/J	.	8ff\J	.	.	.
=173	=173	=173	=173	=173	=173	=173	=173
8AA/L	.	8c/L	.	8ee\L	.	[4aa\)	.
8E/	.	8B/	.	8dd\	.	.	.
8AA/J	.	8A/J)	.	8cc\J)	.	8aa\_	.
8C/L	.	(4.d#\	.	(4.f#/	.	8aa\L]	.
8BB/	p	.	.	.	.	(8bb\	.
8AA/J	.	.	.	.	.	8ccc\J	.
=174	=174	=174	=174	=174	=174	=174	=174
8EE/L	.	4.e\)	.	4.g#/)	.	8bb\L	.
8GG#/	.	.	.	.	.	8gg#\	.
8BB/J	.	.	.	.	.	8ee\J)	.
8C/L	.	(4.d#\	.	(4.f#/	.	(8aa\L	.
8BB/	p	.	.	.	.	8bb\	.
8AA/J	.	.	.	.	.	8ccc\J	.
=175	=175	=175	=175	=175	=175	=175	=175
8EE/L	.	4.e\)	.	4.g#/)	.	8bb\L	.
8GG#/	.	.	.	.	.	8gg#\	.
8BB/J	.	.	.	.	.	8ee\J)	.
8F\L	.	4.B/	.	4.g#/	.	(8ddd\L	.
8E\	.	.	.	.	.	8eee\	.
8D\J	.	.	.	.	.	8fff\J)	.
=176	=176	=176	=176	=176	=176	=176	=176
8C/L	p	(4c/	p	4a/	p	(4eee\	p
8CC/	.	.	.	.	.	.	.
8FF/J	.	[8A/	.	(8a/	.	8aa\	.
8DD/L	.	4A/]	.	4cc\	.	4ccc\	.
8D/	.	.	.	.	.	.	.
8EE/J	.	8G#/)	.	8b\)	.	8bb\)	.
=177	=177	=177	=177	=177	=177	=177	=177
8FF/L	.	(4G#/	.	(4b\	.	(4bb\	.
8F/	.	.	.	.	.	.	.
8E/J	.	8A/	.	8cc\	.	8ccc\	.
8D/L	.	8B/L	.	8dd\L	.	8ddd\L	.
8C/	.	8c/	.	8ee\	.	8eee\	.
8BB/J	.	8G#/) 8d/J	.	8ff\J)	.	8fff\J)	.
=178	=178	=178	=178	=178	=178	=178	=178
8CC/L	f	4A/	f	(8ee\L	f	(8eee\L	f
8C/	.	.	.	8cc\)	.	8ccc\)	.
8F/J	.	[8F/	.	8a'\J	.	8aa'\J	.
8D/L	.	(8F/L]	.	(4a/	.	(4ccc\	.
8DD/	.	8f/	.	.	.	.	.
8EE/J	.	8B/J)	.	8g#/	.	8bb\	.
=179	=179	=179	=179	=179	=179	=179	=179
4AA/	p	4E/ 4c/	p	4a/)	p	4aa\)	p
8r	.	(8A/	.	(8e/	.	(8cc\	.
4AA/	.	8G#/L	.	8d/L	.	8b\L	.
.	.	8A/)	.	8e/)	.	8cc\)	.
8r	.	8E'/J	.	8c'/J	.	8a'\J	.
=180	=180	=180	=180	=180	=180	=180	=180
4AA/	.	(4E/	.	(4c/	.	(4a/	.
8r	.	8A/)	.	8e/)	.	8cc\)	.
4AA/	.	(16G#/LL	.	(16d/LL	.	(16b\LL	.
.	.	16A/)	.	16e/)	.	16cc\)	.
.	.	(16D/	.	(16f/	.	(16dd\	.
.	.	16E/)	.	16e/)	.	16cc\)	.
8r	.	(16F/	.	(16d/	.	(16b\	.
.	.	16E/JJ)	.	16c/JJ)	.	16a\JJ)	.
=181	=181	=181	=181	=181	=181	=181	=181
4AA/	.	(4E/	.	(4c/	.	(4a/	.
8r	.	8A/)	.	8e/)	.	8cc\)	.
4AA/	.	(16G#/LL	.	(16d/LL	.	(16b\LL	.
.	.	16A/)	.	16e/)	.	16cc\)	.
.	.	(16G#/	.	(16d/	.	(16b\	.
.	.	16A/J)	.	16e/J)	.	16cc\J)	.
8r	.	8E/J	.	8c/J	.	8a\J	.
=182	=182	=182	=182	=182	=182	=182	=182
4AA/	.	(4E/	.	(4c/	.	(4a/	.
8r	.	8A/)	.	8e/)	.	8cc\)	.
4AA/	.	(16G#/LL	.	(16d/LL	.	(16b\LL	.
.	.	16A/)	.	16e/)	.	16cc\)	.
.	.	(16D/	.	(16f/	.	(16dd\	.
.	.	16E/)	.	16e/	.	16cc\)	.
8r	.	(16F/	.	16d/)	.	(16b\	.
.	.	16E/JJ)	.	&(16c/JJ&)	.	16a\JJ)	.
=183	=183	=183	=183	=183	=183	=183	=183
4AA/	.	(4E/	.	(4c/	.	(4a/	.
8r	.	16F/LL	.	16d/LL	.	16b/LL	.
.	.	16E/JJ)	.	16c/JJ)	.	16a/JJ)	.
4AA/	.	(4E/	.	(4c/	.	(4a/	.
8r	.	16F/LL	.	16d/LL	.	16b/LL	.
.	.	16E/JJ)	.	16c/JJ)	.	16a/JJ)	.
=184	=184	=184	=184	=184	=184	=184	=184
8AA/	.	8E/	.	8c/	.	8a/	.
8r	.	8r	.	8r	.	8r	.
(8BB-/	f	(8B-/	f	8r	.	8r	.
8GG-/L	.	8G-/L	.	4r	.	4r	.
8BB-/	.	8B-/	.	.	.	.	.
8FF/J	.	8F/J	.	[8d-/	.	[8dd-\	.
=185	=185	=185	=185	=185	=185	=185	=185
8EE/L	.	8E/L	.	(4d-/]	.	(4dd-\]	.
8GGn/	.	8Gn/	.	.	.	.	.
8BB-/J)	.	8B-/J)	.	8c/)	.	8cc\)	.
(8GG-/L	.	(8G-/L	.	8r	.	8r	.
8BB-/	.	8B-/	.	8r	.	8r	.
8FF/J	.	8F/J	.	[8d-/	.	[8dd-\	f
=186	=186	=186	=186	=186	=186	=186	=186
8EE/L	.	8E/L	.	(4d-/]	.	(4dd-\]	.
8GGn/	.	8Gn/	.	.	.	.	.
8BB-/J)	.	8B-/J)	.	8c/)	.	8cc\)	.
(8GG/L	.	(8G/	.	8r	.	8r	.
8BB-/	.	[4B-/)	.	8r	.	8r	.
8FF/J)	.	.	.	[8c#/	.	[8cc#\	.
=187	=187	=187	=187	=187	=187	=187	=187
(8EE/L	f	(4B-/]	f	(4c#/]	f	(4cc#\]	f
8GG/	.	.	.	.	.	.	.
8FF/J	.	8A/	.	8dn/	.	8ddn\	.
8CC#/L	>	8G/L	>	8e/L	>	8ee\L	>
8DD/	.	8F/)	.	8f/)	.	8ff\)	.
8FF/J)	.	8A'/J	.	8d'/J	.	8dd'\J	.
=188	=188	=188	=188	=188	=188	=188	=188
[2.EE/	p	(4.A/	p	(8e/L	p	(4.ccn\	p
.	.	.	.	8d#/	.	.	.
.	.	.	.	8e/J)	.	.	.
.	.	4G#/	.	4.e/	.	4b\)	.
.	.	[8Gn/)	.	.	.	[8b-\	.
=189	=189	=189	=189	=189	=189	=189	=189
4.EE/_	.	8G/]	.	8r	.	4b-\]	.
.	.	[4E/	.	8r	.	.	.
.	.	.	.	(8b-/	.	(8bb-\	.
4EE/]	.	4E/]	.	8g/L	.	8gg\L	.
.	.	.	.	8b-/	.	8bb-\	.
[8DD-/	.	[8D-/	.	8f/J	.	8ff\J	.
=190	=190	=190	=190	=190	=190	=190	=190
(4DD-/]	.	(4D-/]	.	8e/L	.	8ee\L	.
.	.	.	.	8g/	.	8gg\	.
8CC/)	.	8C/)	.	8b-/J)	.	8bb-\J)	.
8r	.	8r	.	(8g-/L	.	(8gg-\L	.
8r	.	8r	.	8b-/	.	8bb-\	.
[8DD-/	.	[8D-/	.	8f/J	.	8ff\J	.
=191	=191	=191	=191	=191	=191	=191	=191
(4DD-/]	.	(4D-/]	.	8e/L	.	8ee\L	.
.	.	.	.	8gn/	.	8ggn\	.
8CC/)	.	8C/)	.	8b-/J)	.	8bb-\J)	.
8r	.	8r	.	(8g/L	.	(8gg\L	.
8r	.	8r	.	8b-/	.	8bb-\	.
[8CC#/	f	[8C#/	f	8f/J	f	8ff\J	f
=192	=192	=192	=192	=192	=192	=192	=192
4.CC#/_	.	4.C#/_	.	8e/L	.	8ee\L	.
.	.	.	.	8b-/	.	8bb-\	.
.	.	.	.	8a/J	.	8aa\J	.
4CC#/]	>	(8C#/L]	>	8g#/L	>	8gg#\L	>
.	.	8E/	.	8a/	.	8aa\	.
8C#/	.	8A/J)	.	8e/J	.	8ee\J	.
=193	=193	=193	=193	=193	=193	=193	=193
4Dn\	p	4A/	p	(8gn/L)	p	(8gg\L)	p
.	.	.	.	8f/)	.	8ff\)	.
8F\	.	[8A/	.	8d'/J	.	8dd'\J	.
4E\	.	4A/]	.	(8c/L	.	(4cc\	.
.	.	.	.	8e/	.	.	.
8EE/	.	[8E/	.	8d/J)	.	8b\)	.
=194	=194	=194	=194	=194	=194	=194	=194
4AA/	.	(4E/]	.	(4c/	.	(4a/	.
8r	.	8A/	.	8e/	.	8cc\	.
4AA/	.	8G#/L	.	8d/L	.	8b\L	.
.	.	8A/)	.	8e/)	.	8cc\)	.
8r	.	8E'/J	.	8c'/J	.	8a'\J	.
=195	=195	=195	=195	=195	=195	=195	=195
4AA/	.	(4E/	.	(4c/	.	(4a/	.
8r	.	8A/)	.	8e/)	.	8cc\)	.
4AA/	.	(16G#/LL	.	(16d/LL	.	(16b\LL	.
.	.	16A/)	.	16e/)	.	16cc\)	.
.	.	(16D/	.	(16f/	.	(16dd\	.
.	.	16E/)	.	16e/)	.	(16cc\)	.
8r	.	(16F/	.	(16d/	.	16b\	.
.	.	16E/JJ)	.	16c/JJ)	.	16a\JJ)	.
=196	=196	=196	=196	=196	=196	=196	=196
4AA/	.	(4E/	.	(4c/	.	(4a/	.
8r	.	8A/)	.	8e/)	.	8cc\)	.
4AA/	.	(16G#/LL	.	(16d/LL	.	(16b\LL	.
.	.	16A/)	.	16e/)	.	16cc\)	.
.	.	(16G#/	.	(16d/	.	(16b\	.
.	.	16A/J)	.	16e/J)	.	16cc\J)	.
8r	.	8E/J	.	8c/J	.	8a\J	.
=197	=197	=197	=197	=197	=197	=197	=197
4AA/	.	(4E/	.	(4c/	.	(4a/	.
8r	.	8A/)	.	8e/)	.	8cc\)	.
4AA/	.	(16G#/LL	.	(16d/LL	.	(16b\LL	.
.	.	16A/)	.	16e/	.	16cc\)	.
.	.	(16D/	.	(16f/)	.	(16dd\	.
.	.	16E/)	.	16e/)	.	16cc\)	.
8r	.	(16F/	.	(16d/	.	(16b\	.
.	.	16E/JJ)	.	16c/JJ)	.	16a\JJ)	.
=198	=198	=198	=198	=198	=198	=198	=198
4AA/	.	(4E/	.	(4c/	.	(4a/	.
8r	.	16F/LL	.	16d/LL	.	16b/LL	.
.	.	16E/JJ)	.	16c/JJ)	.	16a/JJ)	.
4AA/	.	(4E/	.	(4c/	.	(4a/	.
8r	.	16F/LL	.	16d/LL	.	16b/LL	.
.	.	16E/JJ)	.	16c/JJ)	.	16a/JJ)	.
=199	=199	=199	=199	=199	=199	=199	=199
4AA/	.	(4E/	.	(4c/	.	(4a/	.
8r	.	16F/LL	.	16d/LL	.	16b/LL	.
.	.	16E/JJ)	.	16c/JJ)	.	16a/JJ)	.
4AA/	.	(4E/	.	(4c/	.	(4a/	.
8r	.	16F/LL	.	16d/LL	.	16b/LL	.
.	.	16E/JJ)	.	16c/JJ)	.	16a/JJ)	.
=200	=200	=200	=200	=200	=200	=200	=200
8AA/L	pp	[2.E/	pp	[2.c/	pp	[2.a/	pp
8GG/	.	.	.	.	.	.	.
8FF/J	.	.	.	.	.	.	.
8EE/L	.	.	.	.	.	.	.
8FF/	.	.	.	.	.	.	.
8DD/J	.	.	.	.	.	.	.
=201	=201	=201	=201	=201	=201	=201	=201
8CC/L	.	2.E/_	.	2.c/_	.	2.a/_	.
8DD/	.	.	.	.	.	.	.
8DD#/J	.	.	.	.	.	.	.
8EE/L	.	.	.	.	.	.	.
8FF#/	.	.	.	.	.	.	.
8GG#/J	.	.	.	.	.	.	.
=202	=202	=202	=202	=202	=202	=202	=202
8AA/L	.	2.E/_	.	2.c/_	.	2.a/_	.
8BB/	.	.	.	.	.	.	.
8C/J	.	.	.	.	.	.	.
8D\L	.	.	.	.	.	.	.
8D#\	.	.	.	.	.	.	.
8E\J	.	.	.	.	.	.	.
=203	=203	=203	=203	=203	=203	=203	=203
8F\L	.	4.E/]	.	4.c/]	.	4.a/]	.
8Dn\	.	.	.	.	.	.	.
8E\J	.	.	.	.	.	.	.
8C\L	.	[4.E/	.	[4.c/	.	[4.a/	.
8D\	.	.	.	.	.	.	.
8BB\J	.	.	.	.	.	.	.
=204	=204	=204	=204	=204	=204	=204	=204
8C/L	.	4.E/]	.	4.c/]	.	4.a/]	.
8AA/	.	.	.	.	.	.	.
8BB/J	.	.	.	.	.	.	.
8AA/L	.	[4.E/	.	[4.c/	.	[4.a/	.
8BB/	.	.	.	.	.	.	.
8AA/J	.	.	.	.	.	.	.
=205	=205	=205	=205	=205	=205	=205	=205
8BB/L	.	4.E/]	.	4.c/]	.	4.a/]	.
8AA/	.	.	.	.	.	.	.
8BB/J	.	.	.	.	.	.	.
8AA/L	pp	[4.E/	pp	[4.c/	pp	[4.a/	pp
8BB/	.	.	.	.	.	.	.
8AA/J	.	.	.	.	.	.	.
=206	=206	=206	=206	=206	=206	=206	=206
4AA/	.	4E/]	.	4c/]	.	4a/]	.
8r	.	8r	.	8r	.	8r	.
4AA/	.	4A/	.	4A/	.	4A/	.
8r	.	8r	.	8r	.	8r	.
=207	=207	=207	=207	=207	=207	=207	=207
4AA/	.	4A/	.	4A/	.	4A/	.
8r	.	8r	.	8r	.	8r	.
4r	.	4r	.	4r	.	4r	.
8r	.	8r	.	8r	.	8r	.
==	==	==	==	==	==	==	==
*-	*-	*-	*-	*-	*-	*-	*-
!!!ONB: Scanned with SharpEye into MusicXML by Don Anthony 2006///
!!!ONB: Converted to Humdrum by Craig Sapp 2006/07/24/
